site/web/app/themes/cedreo-designer/assets/icons/tutos.svg

<?xml version="1.0" encoding="utf-8"?>
<!-- Generated by IcoMoon.io -->
<!DOCTYPE svg PUBLIC "-//W3C//DTD SVG 1.1//EN" "http://www.w3.org/Graphics/SVG/1.1/DTD/svg11.dtd">
<svg version="1.1" xmlns="http://www.w3.org/2000/svg" xmlns:xlink="http://www.w3.org/1999/xlink" width="38" height="32" viewBox="0 0 38 32">
<path fill="#000" d="M0 0v32h38.067v-32h-38.067zM6.067 30.335h-4.639v-6.067h4.639v6.067zM6.067 22.84h-4.639v-6.067h4.639v6.067zM6.067 15.346h-4.639v-6.067h4.639v6.067zM6.067 7.494h-4.639v-6.067h4.639v6.067zM30.335 10.112v20.461h-22.84v-29.145h22.84v8.684zM36.283 30.335h-4.639v-6.067h4.639v6.067zM36.283 22.84h-4.639v-6.067h4.639v6.067zM36.283 15.346h-4.639v-6.067h4.639v6.067zM36.283 7.494h-4.639v-6.067h4.639v6.067z"></path>
<path fill="#000" d="M15.227 9.874v12.372l10.706-6.067-10.706-6.305zM16.773 12.491l6.067 3.45-6.067 3.45v-6.9z"></path>
</svg>

<svg xmlns="http://www.w3.org/2000/svg" width="38" height="32" viewBox="0 0 38 32"><path d="M0 0v32h38.067V0H0zm6.067 30.335H1.428v-6.067h4.639v6.067zm0-7.495H1.428v-6.067h4.639v6.067zm0-7.494H1.428V9.279h4.639v6.067zm0-7.852H1.428V1.427h4.639v6.067zm24.268 2.618v20.461H7.495V1.428h22.84v8.684zm5.948 20.223h-4.639v-6.067h4.639v6.067zm0-7.495h-4.639v-6.067h4.639v6.067zm0-7.494h-4.639V9.279h4.639v6.067zm0-7.852h-4.639V1.427h4.639v6.067z"/><path d="M15.227 9.874v12.372l10.706-6.067-10.706-6.305zm1.546 2.617l6.067 3.45-6.067 3.45v-6.9z"/></svg>
